svgs/sharp-regular/paint-roller.svg

<svg xmlns="http://www.w3.org/2000/svg" viewBox="0 0 512 512"><!--! Font Awesome Pro 6.6.0 by @fontawesome - https://fontawesome.com License - https://fontawesome.com/license (Commercial License) Copyright 2024 Fonticons, Inc. --><path d="M368 48L48 48l0 96 320 0 0-96zM48 0L368 0l48 0 0 48 0 24 0 48 0 24 0 48-48 0L48 192 0 192l0-48L0 48 0 0 48 0zM248 320l40 0 0 192-128 0 0-192 40 0 0-64 0-24 24 0 240 0 0-112-16 0 0-48 40 0 24 0 0 24 0 160 0 24-24 0-240 0 0 40z"/></svg>

<svg xmlns="http://www.w3.org/2000/svg" viewBox="0 0 512 512"><!--! Font Awesome Pro 6.4.2 by @fontawesome - https://fontawesome.com License - https://fontawesome.com/license (Commercial License) Copyright 2023 Fonticons, Inc. --><path d="M368 48H48v96H368V48zM48 0H368h48V48 72v48 24 48H368 48 0V144 48 0H48zM248 320h40V512H160V320h40V256 232h24H464V120H448V72h40 24V96 256v24H488 248v40z"/></svg>
